!!!COM: Fux, Johann Joseph
!!!OMD: Gradus ad Parnassum Exercise
!!!YEC: CC0 1.0 Universal (Public Domain). Mark Gotham and FourScoreAndMore.org waive all rights to this document.
**kern	**kern
*part2	*part1
*staff2	*staff1
*I"2	*I"1
*I'Pno	*I'Pno
!!LO:PB:g=z
*clefG2	*clefG2
*k[]	*k[]
!!LO:TX:omd:t=
*M2/2	*M2/2
=414	=414
!	!LO:TX:a:t=Fig. 84a; Species&colon; 5; Modal final&colon; e; Cantus firmus&colon; Lower
1e	2r
.	[2ee\
=415	=415
1c	4ee\]
.	4dd\
.	4cc\
.	4b\
=416	=416
1d	4a/
.	4g/
.	4f/
.	4d/
=417	=417
1c	4e/
.	4g/
.	[2cc\
=418	=418
1A	4cc\]
.	4b\
.	4a/
.	4g/
!!LO:LB:g=z
=419	=419
1a	2f/
.	[2cc\
=420	=420
1g	4cc\]
.	8b/L
.	8a/J
.	4b\
.	4a/
=421	=421
1e	4g/
.	4e/
.	[2ee\
=422	=422
1f	2ee\]
.	2dd\
=423	=423
1e	1ee
==	==
*-	*-
!!!software: music21 v.9.7.1
!!!software: music21 v.9.7.1
!!!software: MuseScore 3.4.2
!!!RDF**kern: > = above
!!!RDF**kern: < = below
